material/.icons/material/lightbulb-cfl-spiral.svg

<svg xmlns="http://www.w3.org/2000/svg" viewBox="0 0 24 24"><path d="M11 2c-.16 0-.31.03-.45.1l-2 1C7.56 3.66 8 5 9 5c.16 0 .32-.05.45-.1l2-1C12.43 3.36 12 2 11 2m4 2a.96.96 0 00-.45.1l-6 3C7.56 7.68 8 9 9 9c.18 0 .32-.05.45-.1l6-3C16.41 5.43 16 4 15 4m0 4c-.16 0-.31.03-.45.1L8.7 11.03c-.5.22-.7.57-.7.97v2H7v3c0 .55.44 1 1 1h8c.55 0 1-.45 1-1v-3h-1v-1c0-.56-.45-1-1-1s-1 .45-1 1v1h-4v-1.38l5.45-2.72C16.42 9.34 16 8 15 8M9 20v1c0 .57.46 1 1 1h4c.56 0 1-.45 1-1v-1"/></svg>

<?xml version="1.0" encoding="UTF-8"?><!DOCTYPE svg PUBLIC "-//W3C//DTD SVG 1.1//EN" "http://www.w3.org/Graphics/SVG/1.1/DTD/svg11.dtd"><svg xmlns="http://www.w3.org/2000/svg" xmlns:xlink="http://www.w3.org/1999/xlink" version="1.1" id="mdi-lightbulb-cfl-spiral" width="24" height="24" viewBox="0 0 24 24"><path d="M11 2C10.84 2 10.69 2.03 10.55 2.1L8.55 3.1C7.56 3.66 8 5 9 5C9.16 5 9.32 4.95 9.45 4.9L11.45 3.9C12.43 3.36 12 2 11 2M15 4C14.83 4 14.69 4.03 14.55 4.1L8.55 7.1C7.56 7.68 8 9 9 9C9.18 9 9.32 8.95 9.45 8.9L15.45 5.9C16.41 5.43 16 4 15 4M15 8C14.84 8 14.69 8.03 14.55 8.1L8.7 11.03C8.2 11.25 8 11.6 8 12V14H7V17C7 17.55 7.44 18 8 18H16C16.55 18 17 17.55 17 17V14H16V13C16 12.44 15.55 12 15 12C14.45 12 14 12.45 14 13V14H10V12.62L15.45 9.9C16.42 9.34 16 8 15 8M9 20V21C9 21.57 9.46 22 10 22H14C14.56 22 15 21.55 15 21V20" /></svg>
